src/assets/icons/fa/chevron-circle-left.svg

<?xml version="1.0" encoding="utf-8"?>
<svg width="1792" height="1792" viewBox="0 0 1792 1792" xmlns="http://www.w3.org/2000/svg"><path d="M1037 1395l102-102q19-19 19-45t-19-45l-307-307 307-307q19-19 19-45t-19-45l-102-102q-19-19-45-19t-45 19l-454 454q-19 19-19 45t19 45l454 454q19 19 45 19t45-19zm627-499q0 209-103 385.5t-279.5 279.5-385.5 103-385.5-103-279.5-279.5-103-385.5 103-385.5 279.5-279.5 385.5-103 385.5 103 279.5 279.5 103 385.5z"/></svg>

<svg xmlns="http://www.w3.org/2000/svg" viewBox="0 0 1792 1792"><path d="M1037 1395l102-102q19-19 19-45t-19-45L832 896l307-307q19-19 19-45t-19-45l-102-102q-19-19-45-19t-45 19L493 851q-19 19-19 45t19 45l454 454q19 19 45 19t45-19zm627-499q0 209-103 385.5T1281.5 1561 896 1664t-385.5-103T231 1281.5 128 896t103-385.5T510.5 231 896 128t385.5 103T1561 510.5 1664 896z"/></svg>
